X:2405
T:The Blackthorn Stick
O:Ireland
M:6/8
L:1/8
Q:1/4=193
K:G
V:1
!segno!gg2 eg e|d BG AG E|D GG FG A|B GB A2 d|
g g2 ag e|d BG AG E|D GG FG A|B GG G2 d:| |:
e d2 gd d|e dd gd d|e d2 gf g|e dB A2 d|
g g2 ag e|d BG AG E|D GG FG A|B GG G2 d:|
